X: 1
T: Kozacheks Waltz
C: Terry Traub, Jan 23 2016
M: 3/4
L: 1/8
K: D
|: ddc|"D"d2-dA AF|"G"G2 "A"A2 dc|"D"d2-dd cd|"A"ec A2 dc|
"D"d2-dA AF|"Bm"G2 A2 A2|"Em"B2-Bc df|"A"e3 :|
efg|"D"a2-af ed|"G"B2 d2 "A"fg|"D"a2-af ef|"G"gf d2 "A"fg|
"D"a2-af ed|"Bm"B2 d2 B2|"Em"G2-GB df|"A"e3 efg||
"D"a2-af ed|"G"B2 d2 "A"fg|"D"a2-af ef|"G"gf d2 B2|
"Em"G2-GB de|"G"f2-fe dB|"Em"GA Bc df|"A"e3 |]

